icons/themes/default/exchange.svg

<svg viewBox="0 0 16 16" fill="none" xmlns="http://www.w3.org/2000/svg">
<path fill-rule="evenodd" clip-rule="evenodd" d="M6.96651 2.17997C7.72184 2.0134 8.50608 2.03028 9.25354 2.2292C10.001 2.42811 10.6899 2.80327 11.2625 3.32324C11.8351 3.8432 12.2748 4.49283 12.5447 5.2177C12.8145 5.94257 12.9068 6.72155 12.8136 7.48939C12.7803 7.76353 12.9756 8.01272 13.2497 8.04598C13.5239 8.07924 13.773 7.88398 13.8063 7.60985C13.9187 6.68336 13.8075 5.74342 13.4818 4.86879C13.1562 3.99416 12.6257 3.21031 11.9348 2.58291C11.2438 1.95551 10.4126 1.50284 9.51071 1.26283C8.60882 1.02282 7.66254 1.00245 6.75116 1.20344C5.83978 1.40442 4.98983 1.82091 4.27255 2.41799C3.55526 3.01508 2.99152 3.77538 2.62856 4.63519C2.26561 5.495 2.114 6.42928 2.18645 7.35975C2.25889 8.29021 2.55329 9.18976 3.04496 9.98303C3.19043 10.2177 3.49864 10.2901 3.73335 10.1446C3.96807 9.99913 4.04041 9.69093 3.89493 9.45621C3.48745 8.79878 3.24347 8.05326 3.18343 7.28212C3.12339 6.51098 3.24903 5.73668 3.54984 5.0241C3.85065 4.31152 4.31786 3.68141 4.91232 3.18656C5.50678 2.69171 6.21119 2.34654 6.96651 2.17997ZM8.51001 3.55962V3.74518C9.05484 3.85281 9.667 4.17657 10.0013 4.97689C10.1077 5.2317 9.98747 5.52454 9.73267 5.63098C9.47786 5.73742 9.18502 5.61714 9.07858 5.36234C8.85489 4.82683 8.42445 4.69962 8.03995 4.69962C7.86542 4.69962 7.53681 4.75088 7.28527 4.90127C7.16622 4.97244 7.08023 5.05622 7.02662 5.1522C6.97546 5.24379 6.93677 5.37631 6.95738 5.57903L6.95765 5.58164L6.95764 5.58165C6.98091 5.82308 7.09598 5.98374 7.28517 6.11177C7.49151 6.2514 7.77756 6.34264 8.08684 6.39722C8.43404 6.4585 8.93202 6.56545 9.35397 6.8227C9.80331 7.09665 10.1786 7.55208 10.1997 8.25462L10.1998 8.25771C10.2246 9.29915 9.42636 9.97292 8.51001 10.1456V10.2396C8.51001 10.5158 8.28615 10.7396 8.01001 10.7396C7.73387 10.7396 7.51001 10.5158 7.51001 10.2396V10.1493C7.20771 10.1005 6.92391 10.0046 6.67202 9.84788C6.26707 9.59587 5.9872 9.21263 5.84086 8.72272C5.76183 8.45813 5.91225 8.17957 6.17684 8.10053C6.44143 8.0215 6.72 8.17192 6.79903 8.43651C6.88269 8.7166 7.02282 8.88836 7.20038 8.99886C7.38807 9.11566 7.65989 9.18962 8.03995 9.18962C8.7852 9.18962 9.2102 8.74551 9.20012 8.28301C9.19077 7.98653 9.05618 7.81234 8.83342 7.67653C8.58288 7.52378 8.24585 7.44074 7.91305 7.38201C7.54234 7.31659 7.09838 7.19283 6.72472 6.93996C6.33421 6.67569 6.01945 6.26675 5.96238 5.67889C5.92328 5.29215 5.99337 4.95137 6.15359 4.66454C6.31154 4.38176 6.53992 4.18179 6.77212 4.04297C7.01305 3.89893 7.27407 3.81079 7.51001 3.75994V3.55962C7.51001 3.28347 7.73387 3.05962 8.01001 3.05962C8.28615 3.05962 8.51001 3.28347 8.51001 3.55962ZM13.2726 10.4926L10.9182 12.8543C10.8692 12.9019 10.8085 12.9358 10.7422 12.9525C10.6752 12.9695 10.6049 12.9683 10.5386 12.9492L10.5386 12.9491L10.5327 12.9475L5.08415 11.4479L5.08338 11.4477C4.84563 11.3817 4.59459 11.3801 4.35603 11.4432C4.11748 11.5062 3.90002 11.6317 3.72599 11.8065L3.72539 11.8072L1.42648 14.1061C1.23121 14.3013 1.23121 14.6179 1.42648 14.8132C1.62174 15.0084 1.93832 15.0084 2.13358 14.8132L4.43358 12.5132L4.43467 12.5121C4.48353 12.4629 4.5446 12.4277 4.61161 12.4099C4.67862 12.3922 4.74914 12.3927 4.81591 12.4113L4.81735 12.4117L10.2647 13.911C10.5004 13.9783 10.7497 13.9821 10.9874 13.922C11.2261 13.8617 11.4445 13.7389 11.6203 13.5664L11.6203 13.5665L11.6241 13.5626L13.96 11.2195V13.1296C13.96 13.4058 14.1838 13.6296 14.46 13.6296C14.7361 13.6296 14.96 13.4058 14.96 13.1296V10.017C14.96 10.0121 14.96 10.0072 14.96 10.0022V9.98201C14.96 9.84863 14.9067 9.72078 14.812 9.62689C14.7172 9.53299 14.5889 9.48084 14.4555 9.48203L11.3455 9.50963C11.0694 9.51208 10.8475 9.73792 10.85 10.0141C10.8524 10.2902 11.0783 10.512 11.3544 10.5096L13.2726 10.4926Z" fill="currentColor"/>
</svg>

<svg xmlns="http://www.w3.org/2000/svg" fill="none" viewBox="0 0 16 16">
  <path fill="currentColor" fill-rule="evenodd" d="M6.967 2.18a4.84 4.84 0 0 1 5.847 5.31.5.5 0 1 0 .992.12A5.84 5.84 0 1 0 3.045 9.983a.5.5 0 0 0 .85-.527A4.84 4.84 0 0 1 6.967 2.18ZM8.51 3.56v.185c.545.108 1.157.432 1.491 1.232a.5.5 0 0 1-.922.385c-.224-.535-.655-.662-1.04-.662-.174 0-.502.05-.754.201a.692.692 0 0 0-.258.251.7.7 0 0 0-.07.427v.003a.682.682 0 0 0 .328.53c.207.14.493.23.802.285.347.061.845.168 1.267.426.45.274.825.73.846 1.432v.003c.025 1.041-.774 1.715-1.69 1.888v.094a.5.5 0 1 1-1 0v-.09a2.25 2.25 0 0 1-.838-.302c-.405-.252-.685-.635-.831-1.125a.5.5 0 0 1 .958-.286c.084.28.224.451.401.562.188.117.46.19.84.19.745 0 1.17-.443 1.16-.906-.01-.296-.144-.47-.367-.606-.25-.153-.587-.236-.92-.295-.37-.065-.815-.19-1.188-.442a1.68 1.68 0 0 1-.763-1.261c-.039-.387.031-.728.192-1.014.158-.283.386-.483.618-.622.241-.144.502-.232.738-.283v-.2a.5.5 0 1 1 1 0Zm4.763 6.933-2.355 2.361a.389.389 0 0 1-.38.095l-.005-.002-5.449-1.5a1.39 1.39 0 0 0-1.358.36l-2.3 2.3a.5.5 0 1 0 .708.706l2.3-2.3a.39.39 0 0 1 .382-.102h.001l5.448 1.5a1.39 1.39 0 0 0 1.355-.345l.004-.003 2.336-2.344v1.91a.5.5 0 1 0 1 0V9.983a.5.5 0 0 0-.505-.5l-3.11.028a.5.5 0 1 0 .01 1l1.918-.017Z" clip-rule="evenodd"/>
</svg>
